X:1
T:The Attingham Waltz
C:Helena Torpy
Z:robin.beech@mcgill.ca
N:Transposed from G
N:Sounds wonderful with drones on low A and D
R:waltz
M:3/4
L:1/4
K:D
F2G | A2d | c2d | B2c | A3 | G2F | E2D | F/(D/ D2) | E>F G | E3
F2G | A2d | c2d | B2c | A3 | G2F | E2D | F/(D/ D2) | D3 ::
A>Bc | d>cd | e2d | f>ed | G2F | F>A d | B2A | G2F | E>FG | E3 |
F>EF | G>FG | A2d | B2c | d3 | G2F | E2D | F/ (D/ D2) | D3 :|
